X:1
T:Title
%%score { ( 1 3 ) | ( 2 4 ) }
L:1/8
Q:1/4=100
M:4/4
K:Eb
V:1 treble nm="Grand Piano"
V:3 treble 
V:2 bass 
V:4 bass 
V:1
 G>G G[FA] [GB]2 [GB]2 | E>E E[DF] [EG]4 | [DF]>[DF] [DF][EG] [FA]2 [GB]2 | [Bd]>[Ac] [GB][FA] G4 | %4
w: Ira~B.~Wilson * * * * *||||
 G>G G[FA] [GB]2 [GB]2 | z4 d4 | [Ge]>[Ge] [Be][Ac] [GB]2 GE | [EG]>[EG] [DF][DF] E4 | %8
w: ||||
 G>G GF F2 EG | [GB]>[GB] [GB]G B4 |[M:2/4] c>c cA | c2 d[Ee] |[M:4/4] B>B BG [DF]4 | %13
w: |||||
 G>G G[FA] [GB]2 [GB]2 | z4 d4 | [Ge]>[Ge] [EBe][EAc] [EGB]2 [B,EG][=A,E] | %16
w: |||
[M:8/4] [B,EG]>[B,EG][A,DF][A,DF] [G,E]4 z8 |] %17
w: |
V:2
 [E,B,E]>[E,B,E] [E,B,E][E,B,] [E,E]2 [E,E]2 | [E,G,B,]>[E,G,B,] [E,G,B,][B,,B,] [E,B,]4 | %2
 [B,,B,]>[B,,B,] [B,,B,][B,,B,] [B,,B,]2 [B,,B,]2 | [B,,B,]>[B,,B,] [B,,B,][B,,B,] [E,B,E]4 | %4
 [E,B,E]>[E,B,E] [E,B,E][E,B,] [E,E]2 [E,E]2 | z4 F2 z2 | %6
 [E,B,]>[E,B,] [G,E][A,E] [E,E]2 [E,B,E][C,=A,] | [B,,B,]>[B,,B,] [B,,A,][B,,A,] [E,G,]4 | %8
 [E,B,E]>[E,B,E] [E,B,E][E,A,B,] [E,A,B,]2 [E,G,B,][E,B,E] | [E,E]>[E,E] [E,E][E,B,E] [E,G,E]4 | %10
[M:2/4] [A,E]>[A,E] [A,E][A,CE] | [A,E]2 [A,B,E][C,A,] | %12
[M:4/4] [E,G,E]>[E,G,E] [E,G,E][E,B,E] [B,,B,]4 | [E,B,E]>[E,B,E] [E,B,E][E,B,] [E,E]2 [E,E]2 | %14
 z4 F2 z2 | [E,B,]>[E,B,] G,A, E,2 E,C, |[M:8/4] B,,>B,,B,,B,, E,4 z8 |] %17
V:3
 x8 | x8 | x8 | x8 | x8 | =A>B ce z2 _A2 | x8 | x8 | x8 | x8 |[M:2/4] x4 | x4 |[M:4/4] x8 | x8 | %14
 =A>B ce z2 _A2 | x8 |[M:8/4] x16 |] %17
V:4
 x8 | x8 | x8 | x8 | x8 | [F,EF]>[F,DF] [=A,CF][F,A,F] B,4 | x8 | x8 | x8 | x8 |[M:2/4] x4 | x4 | %12
[M:4/4] x8 | x8 | [F,EF]>[F,DF] [=A,CF][F,A,F] B,4 | x8 |[M:8/4] x16 |] %17

